packages/ui-icons/svg/Line/marker.svg

<svg viewBox="0 0 1920 1920" version="1.1" xmlns="http://www.w3.org/2000/svg">
    <path d="M1290,1083.396 C1175.88,1196.556 1036.32,1353.276 957.96,1550.196 C881.04,1351.116 742.8,1195.356 630,1083.276 C488.64,943.236 420,803.796 420,656.796 C420,360.876 660.84,120.036 963.12,120.036 C1259.16,120.036 1500,360.876 1500,656.796 C1500,803.796 1431.36,943.236 1290,1083.396 M956.88,0.036 C594.72,0.036 300,294.636 300,656.796 C300,837.396 380.28,1004.796 545.4,1168.476 C785.16,1406.316 896.88,1626.036 896.88,1860.036 L896.88,1920.036 L1016.88,1920.036 L1016.88,1860.036 C1016.88,1627.116 1127.28,1413.876 1374.6,1168.596 C1539.72,1004.796 1620,837.396 1620,656.796 C1620,294.636 1325.28,0.036 956.88,0.036" stroke="none" stroke-width="1" fill-rule="evenodd"/>
</svg>

<svg viewBox="0 0 1920 1920" xmlns="http://www.w3.org/2000/svg">
    <path d="M1290 1083.396c-114.12 113.16-253.68 269.88-332.04 466.8-76.92-199.08-215.16-354.84-327.96-466.92-141.36-140.04-210-279.48-210-426.48 0-295.92 240.84-536.76 543.12-536.76 296.04 0 536.88 240.84 536.88 536.76 0 147-68.64 286.44-210 426.6M956.88.036C594.72.036 300 294.636 300 656.796c0 180.6 80.28 348 245.4 511.68 239.76 237.84 351.48 457.56 351.48 691.56v60h120v-60c0-232.92 110.4-446.16 357.72-691.44 165.12-163.8 245.4-331.2 245.4-511.8C1620 294.636 1325.28.036 956.88.036" fill-rule="evenodd"/>
</svg>
